modules/themify-icons/icons/trash.svg

<?xml version="1.0" encoding="utf-8"?>
<!-- Generated by IcoMoon.io -->
<!DOCTYPE svg PUBLIC "-//W3C//DTD SVG 1.1//EN" "http://www.w3.org/Graphics/SVG/1.1/DTD/svg11.dtd">
<svg version="1.1" xmlns="http://www.w3.org/2000/svg" xmlns:xlink="http://www.w3.org/1999/xlink" width="17" height="17" viewBox="0 0 17 17">
<g>
</g>
	<path d="M10.935 2.016c-0.218-0.869-0.999-1.516-1.935-1.516-0.932 0-1.71 0.643-1.931 1.516h-3.569v1h11v-1h-3.565zM9 1.5c0.382 0 0.705 0.221 0.875 0.516h-1.733c0.172-0.303 0.485-0.516 0.858-0.516zM13 4h1v10.516c0 0.827-0.673 1.5-1.5 1.5h-7c-0.827 0-1.5-0.673-1.5-1.5v-10.516h1v10.516c0 0.275 0.224 0.5 0.5 0.5h7c0.276 0 0.5-0.225 0.5-0.5v-10.516zM8 5v8h-1v-8h1zM11 5v8h-1v-8h1z" fill="#000000" />
</svg>

<svg xmlns="http://www.w3.org/2000/svg" width="17" height="17" viewBox="0 0 17 17"><path d="M10.935 2.016A1.999 1.999 0 0 0 9 .5c-.932 0-1.71.643-1.931 1.516H3.5v1h11v-1h-3.565zM9 1.5c.382 0 .705.221.875.516H8.142A.988.988 0 0 1 9 1.5zM13 4h1v10.516c0 .827-.673 1.5-1.5 1.5h-7c-.827 0-1.5-.673-1.5-1.5V4h1v10.516a.5.5 0 0 0 .5.5h7a.5.5 0 0 0 .5-.5V4zM8 5v8H7V5h1zm3 0v8h-1V5h1z"/></svg>
